icon/svgs/brands/sitrox.svg

<svg xmlns="http://www.w3.org/2000/svg" viewBox="0 0 448 512"><!--! Font Awesome Free 6.6.0 by @fontawesome - https://fontawesome.com License - https://fontawesome.com/license/free (Icons: CC BY 4.0, Fonts: SIL OFL 1.1, Code: MIT License) Copyright 2024 Fonticons, Inc. --><path d="M212.439 0.00846128V0H448V128H64C64 57.6008 141.755 0.475338 212.439 0.00846128ZM237.256 192V192.007C307.135 192.475 384 249.6 384 320H210.809V319.995C140.915 319.563 64 262.424 64 192H237.256ZM235.565 511.993C306.251 511.521 384 454.399 384 384H0V512H235.565V511.993Z"/></svg>

<svg xmlns="http://www.w3.org/2000/svg" viewBox="0 0 448 512"><!--! Font Awesome Free 7.1.0 by @fontawesome - https://fontawesome.com License - https://fontawesome.com/license/free (Icons: CC BY 4.0, Fonts: SIL OFL 1.1, Code: MIT License) Copyright 2025 Fonticons, Inc. --><path fill="currentColor" d="M212.4 0l0 0 235.6 0 0 128-384 0C64 57.6 141.8 .5 212.4 0zm24.8 192l0 0c69.9 .5 146.7 57.6 146.7 128l-173.2 0 0 0C140.9 319.6 64 262.4 64 192l173.3 0zm-1.7 320c70.7-.5 148.4-57.6 148.4-128l-384 0 0 128 235.6 0 0 0z"/></svg>
